packages/sources/icons/src/vitamix/phone-line.svg

<svg width="16" height="16" viewBox="0 0 16 16" fill="none" xmlns="http://www.w3.org/2000/svg">
<path d="M6.244 7.12133C6.86956 8.22032 7.77968 9.13044 8.87867 9.756L9.468 8.93067C9.56277 8.79796 9.7029 8.70459 9.86187 8.66822C10.0208 8.63186 10.1876 8.65502 10.3307 8.73333C11.2735 9.24862 12.3148 9.55852 13.386 9.64267C13.5532 9.65592 13.7092 9.73169 13.823 9.85488C13.9368 9.97807 14 10.1396 14 10.3073V13.282C14 13.4471 13.9388 13.6063 13.8282 13.7288C13.7177 13.8513 13.5655 13.9285 13.4013 13.9453C13.0465 13.982 12.69 14.0002 12.3333 14C6.62667 14 2 9.37333 2 3.66667C2 3.308 2.018 2.952 2.05467 2.59867C2.0715 2.43446 2.14866 2.28235 2.27119 2.17176C2.39373 2.06116 2.55294 1.99996 2.718 2H5.69267C5.86037 1.99998 6.02193 2.06317 6.14512 2.17697C6.26831 2.29077 6.34408 2.44682 6.35733 2.614C6.44148 3.68519 6.75138 4.72645 7.26667 5.66933C7.34498 5.81238 7.36814 5.97916 7.33178 6.13813C7.29541 6.2971 7.20204 6.43723 7.06933 6.532L6.244 7.12133ZM4.56267 6.68333L5.82933 5.77867C5.46986 5.00273 5.22357 4.17923 5.098 3.33333H3.34C3.336 3.444 3.334 3.55533 3.334 3.66667C3.33333 8.63733 7.36267 12.6667 12.3333 12.6667C12.4447 12.6667 12.556 12.6647 12.6667 12.66V10.902C11.8208 10.7764 10.9973 10.5301 10.2213 10.1707L9.31667 11.4373C8.95244 11.2958 8.59867 11.1287 8.258 10.9373L8.21933 10.9153C6.91172 10.1711 5.82885 9.08828 5.08467 7.78067L5.06267 7.742C4.87127 7.40133 4.70419 7.04756 4.56267 6.68333Z" fill="#001018"/>
</svg>

<svg width="16" height="16" fill="none" xmlns="http://www.w3.org/2000/svg"><path d="M6.244 7.121a7.037 7.037 0 0 0 2.635 2.635l.589-.825a.667.667 0 0 1 .863-.198 7.614 7.614 0 0 0 3.055.91.667.667 0 0 1 .614.664v2.975a.667.667 0 0 1-.599.663 10.28 10.28 0 0 1-1.068.055C6.627 14 2 9.373 2 3.667c0-.359.018-.715.055-1.068A.667.667 0 0 1 2.718 2h2.975a.667.667 0 0 1 .664.614 7.615 7.615 0 0 0 .91 3.055.667.667 0 0 1-.198.863l-.825.59zm-1.681-.438 1.266-.904a8.94 8.94 0 0 1-.731-2.446H3.34a8.999 8.999 0 0 0 9.327 9.327v-1.758a8.945 8.945 0 0 1-2.446-.731l-.904 1.266a8.29 8.29 0 0 1-1.059-.5l-.039-.022a8.37 8.37 0 0 1-3.134-3.134l-.022-.039a8.293 8.293 0 0 1-.5-1.059z" fill="#001018"/></svg>
